_site/images/resources/saas-escrow.svg

<svg height="90" viewBox="0 0 90 90" width="90" xmlns="http://www.w3.org/2000/svg"><g fill="none" fill-rule="evenodd"><rect fill="#127d7a" height="90" rx="9" width="90"/><g fill="#fff" fill-rule="nonzero" transform="translate(18 18)"><path d="m34.6887967 10.0414938v-10.0414938h-14.6058091v10.0414938h4.5643153v1.8257261h-1.8257261v1.8257262h9.1286307v-1.8257262h-1.8257262v-1.8257261zm-12.780083-1.82572617v-6.39004149h10.9543568v6.39004149zm6.3900415 3.65145227h-1.8257262v-1.8257261h1.8257262z"/><path d="m27.3858921 22.4445643-.9585062.9575934c-3.1287543 3.1450181-7.3853498 4.9081361-11.8215768 4.8965975h-.912863v2.1507054c-.0223674 9.785448 4.9558424 18.9041897 13.1990871 24.1771784l.4938589.3167635.4938589-.3167635c8.2432447-5.2729887 13.2214546-14.3917304 13.1990872-24.1771784v-2.1507054h-.9128631c-4.4364997.0120098-8.6933774-1.7515539-11.8215768-4.8975104zm11.8672199 8.0048963c.0201443 8.9533996-4.4323295 17.3254204-11.8672199 22.3140249-7.4348904-4.9886045-11.8873642-13.3606253-11.8672199-22.3140249v-.346888c4.4401806-.2060307 8.6556605-2.012526 11.8672199-5.0855602 3.211652 3.0728942 7.4270769 4.8793658 11.8672199 5.0855602z"/><path d="m40.1659751 10.0414938h4.5643154v1.8257261h-1.8257262v1.8257262h9.1286307v-1.8257262h-1.8257261v-1.8257261h4.5643153v-10.0414938h-14.6058091zm8.2157676 1.8257261h-1.8257261v-1.8257261h1.8257261zm-6.3900415-10.04149376h10.9543569v6.39004149h-10.9543569z"/><path d="m4.56431535 11.8672199h-1.82572614v1.8257262h9.12863069v-1.8257262h-1.8257261v-1.8257261h4.5643153v-10.0414938h-14.6058091v10.0414938h4.56431535zm3.65145228 0h-1.82572614v-1.8257261h1.82572614zm-6.39004149-3.65145227v-6.39004149h10.95435686v6.39004149z"/><path d="m8.21576763 15.5186722h-1.82572614v3.6514523h20.08298751v1.8257261h1.8257262v-1.8257261h20.0829875v-3.6514523h-1.8257261v1.8257261h-18.2572614v-1.8257261h-1.8257262v1.8257261h-18.25726137z"/><path d="m22.8215768 32.8630705v1.8257262h-1.8257262v10.0414938h12.780083v-10.0414938h-1.8257261v-1.8257262c0-2.5208017-2.0435136-4.5643153-4.5643154-4.5643153-2.5208017 0-4.5643153 2.0435136-4.5643153 4.5643153zm9.1286307 10.0414938h-9.1286307v-6.3900415h9.1286307zm-1.8257262-10.0414938v1.8257262h-5.4771784v-1.8257262c0-1.512481 1.2261082-2.7385892 2.7385892-2.7385892 1.5124811 0 2.7385892 1.2261082 2.7385892 2.7385892z"/></g></g></svg>

<?xml version="1.0" encoding="UTF-8"?>
<svg width="90px" height="90px" viewBox="0 0 90 90" version="1.1" xmlns="http://www.w3.org/2000/svg" xmlns:xlink="http://www.w3.org/1999/xlink">
    <!-- Generator: Sketch 52.6 (67491) - http://www.bohemiancoding.com/sketch -->
    <title>Group 27</title>
    <desc>Created with Sketch.</desc>
    <g id="Website" stroke="none" stroke-width="1" fill="none" fill-rule="evenodd">
        <g id="19--Resources" transform="translate(-320.000000, -3962.000000)">
            <g id="Group-6" transform="translate(285.000000, 3756.000000)">
                <g id="Group-27" transform="translate(35.000000, 206.000000)">
                    <rect id="Rectangle" fill="#127D7A" x="0" y="0" width="90" height="90" rx="9"></rect>
                    <g id="Group-12" transform="translate(18.000000, 18.000000)" fill="#FFFFFF" fill-rule="nonzero">
                        <path d="M34.6887967,10.0414938 L34.6887967,-4.156675e-13 L20.0829876,-4.156675e-13 L20.0829876,10.0414938 L24.6473029,10.0414938 L24.6473029,11.8672199 L22.8215768,11.8672199 L22.8215768,13.6929461 L31.9502075,13.6929461 L31.9502075,11.8672199 L30.1244813,11.8672199 L30.1244813,10.0414938 L34.6887967,10.0414938 Z M21.9087137,8.21576763 L21.9087137,1.82572614 L32.8630705,1.82572614 L32.8630705,8.21576763 L21.9087137,8.21576763 Z M28.2987552,11.8672199 L26.473029,11.8672199 L26.473029,10.0414938 L28.2987552,10.0414938 L28.2987552,11.8672199 Z" id="Shape"></path>
                        <path d="M27.3858921,22.4445643 L26.4273859,23.4021577 C23.2986316,26.5471758 19.0420361,28.3102938 14.6058091,28.2987552 L13.6929461,28.2987552 L13.6929461,30.4494606 C13.6705787,40.2349086 18.6487885,49.3536503 26.8920332,54.626639 L27.3858921,54.9434025 L27.879751,54.626639 C36.1229957,49.3536503 41.1012056,40.2349086 41.0788382,30.4494606 L41.0788382,28.2987552 L40.1659751,28.2987552 C35.7294754,28.310765 31.4725977,26.5472013 28.3443983,23.4012448 L27.3858921,22.4445643 Z M39.253112,30.4494606 C39.2732563,39.4028602 34.8207825,47.774881 27.3858921,52.7634855 C19.9510017,47.774881 15.4985279,39.4028602 15.5186722,30.4494606 L15.5186722,30.1025726 C19.9588528,29.8965419 24.1743327,28.0900466 27.3858921,25.0170124 C30.5975441,28.0899066 34.812969,29.8963782 39.253112,30.1025726 L39.253112,30.4494606 Z" id="Shape"></path>
                        <path d="M40.1659751,10.0414938 L44.7302905,10.0414938 L44.7302905,11.8672199 L42.9045643,11.8672199 L42.9045643,13.6929461 L52.033195,13.6929461 L52.033195,11.8672199 L50.2074689,11.8672199 L50.2074689,10.0414938 L54.7717842,10.0414938 L54.7717842,-4.156675e-13 L40.1659751,-4.156675e-13 L40.1659751,10.0414938 Z M48.3817427,11.8672199 L46.5560166,11.8672199 L46.5560166,10.0414938 L48.3817427,10.0414938 L48.3817427,11.8672199 Z M41.9917012,1.82572614 L52.9460581,1.82572614 L52.9460581,8.21576763 L41.9917012,8.21576763 L41.9917012,1.82572614 Z" id="Shape"></path>
                        <path d="M4.56431535,11.8672199 L2.73858921,11.8672199 L2.73858921,13.6929461 L11.8672199,13.6929461 L11.8672199,11.8672199 L10.0414938,11.8672199 L10.0414938,10.0414938 L14.6058091,10.0414938 L14.6058091,-4.156675e-13 L-2.8688163e-12,-4.156675e-13 L-2.8688163e-12,10.0414938 L4.56431535,10.0414938 L4.56431535,11.8672199 Z M8.21576763,11.8672199 L6.39004149,11.8672199 L6.39004149,10.0414938 L8.21576763,10.0414938 L8.21576763,11.8672199 Z M1.82572614,8.21576763 L1.82572614,1.82572614 L12.780083,1.82572614 L12.780083,8.21576763 L1.82572614,8.21576763 Z" id="Shape"></path>
                        <polygon id="Path" points="8.21576763 15.5186722 6.39004149 15.5186722 6.39004149 19.1701245 26.473029 19.1701245 26.473029 20.9958506 28.2987552 20.9958506 28.2987552 19.1701245 48.3817427 19.1701245 48.3817427 15.5186722 46.5560166 15.5186722 46.5560166 17.3443983 28.2987552 17.3443983 28.2987552 15.5186722 26.473029 15.5186722 26.473029 17.3443983 8.21576763 17.3443983"></polygon>
                        <path d="M22.8215768,32.8630705 L22.8215768,34.6887967 L20.9958506,34.6887967 L20.9958506,44.7302905 L33.7759336,44.7302905 L33.7759336,34.6887967 L31.9502075,34.6887967 L31.9502075,32.8630705 C31.9502075,30.3422688 29.9066939,28.2987552 27.3858921,28.2987552 C24.8650904,28.2987552 22.8215768,30.3422688 22.8215768,32.8630705 Z M31.9502075,42.9045643 L22.8215768,42.9045643 L22.8215768,36.5145228 L31.9502075,36.5145228 L31.9502075,42.9045643 Z M30.1244813,32.8630705 L30.1244813,34.6887967 L24.6473029,34.6887967 L24.6473029,32.8630705 C24.6473029,31.3505895 25.8734111,30.1244813 27.3858921,30.1244813 C28.8983732,30.1244813 30.1244813,31.3505895 30.1244813,32.8630705 Z" id="Shape"></path>
                    </g>
                </g>
            </g>
        </g>
    </g>
</svg>
